ui_kit/lib/assets/icons/brb.svg

<svg width="24" height="24" viewBox="0 0 24 24" fill="none" xmlns="http://www.w3.org/2000/svg">
<path fill-rule="evenodd" clip-rule="evenodd" d="M4 5H20C20.5523 5 21 5.44772 21 6V18C21 18.5523 20.5523 19 20 19H4C3.44772 19 3 18.5523 3 18V6C3 5.44772 3.44772 5 4 5ZM2 6C2 4.89543 2.89543 4 4 4H20C21.1046 4 22 4.89543 22 6V18C22 19.1046 21.1046 20 20 20H4C2.89543 20 2 19.1046 2 18V6ZM5 16V8H6.76546C7.15252 8 7.48033 8.05618 7.7489 8.16854C8.02537 8.2809 8.2505 8.43071 8.42428 8.61798C8.59806 8.80524 8.7205 9.02247 8.79159 9.26966C8.87058 9.50936 8.91008 9.7603 8.91008 10.0225V10.3146C8.91008 10.5318 8.89033 10.7154 8.85083 10.8652C8.81924 11.015 8.76789 11.1461 8.6968 11.2584C8.56251 11.4682 8.35714 11.6479 8.08067 11.7978C8.36504 11.9251 8.57436 12.1124 8.70865 12.3596C8.84293 12.6067 8.91008 12.9438 8.91008 13.3708V13.8202C8.91008 14.5243 8.7284 15.0637 8.36504 15.4382C8.00957 15.8127 7.43689 16 6.64697 16H5ZM6.20857 12.2921V14.8539H6.72991C6.97479 14.8539 7.16437 14.8202 7.29865 14.7528C7.44084 14.6854 7.54747 14.5918 7.61857 14.4719C7.68966 14.3521 7.7331 14.2097 7.7489 14.0449C7.7647 13.8801 7.7726 13.7004 7.7726 13.5056C7.7726 13.3034 7.76075 13.1273 7.73705 12.9775C7.71336 12.8277 7.66596 12.7004 7.59487 12.5955C7.51588 12.4906 7.40924 12.4157 7.27495 12.3708C7.14067 12.3184 6.96294 12.2921 6.74176 12.2921H6.20857ZM6.20857 9.07865V11.2809H6.75361C7.15647 11.2809 7.42504 11.1873 7.55932 11C7.70151 10.8052 7.7726 10.5243 7.7726 10.1573C7.7726 9.79775 7.69361 9.52809 7.53563 9.34831C7.38554 9.16854 7.10907 9.07865 6.70621 9.07865H6.20857ZM11.2535 9.07865V11.573H11.9408C12.154 11.573 12.3239 11.5468 12.4503 11.4944C12.5766 11.4345 12.6754 11.3521 12.7465 11.2472C12.8097 11.1423 12.8531 11.015 12.8768 10.8652C12.9005 10.7079 12.9124 10.5281 12.9124 10.3258C12.9124 10.1236 12.9005 9.94757 12.8768 9.79775C12.8531 9.64045 12.8057 9.50562 12.7346 9.39326C12.5845 9.18352 12.3002 9.07865 11.8815 9.07865H11.2535ZM10.045 16V8H11.9882C13.41 8 14.1209 8.78277 14.1209 10.3483C14.1209 10.8202 14.0419 11.221 13.8839 11.5506C13.7339 11.8801 13.4653 12.1461 13.0782 12.3483L14.3816 16H13.1019L11.9763 12.5843H11.2535V16H10.045ZM15.0899 8V16H16.7369C17.5268 16 18.0995 15.8127 18.455 15.4382C18.8183 15.0637 19 14.5243 19 13.8202V13.3708C19 12.9438 18.9329 12.6067 18.7986 12.3596C18.6643 12.1124 18.455 11.9251 18.1706 11.7978C18.4471 11.6479 18.6524 11.4682 18.7867 11.2584C18.8578 11.1461 18.9092 11.015 18.9408 10.8652C18.9803 10.7154 19 10.5318 19 10.3146V10.0225C19 9.7603 18.9605 9.50936 18.8815 9.26966C18.8104 9.02247 18.688 8.80524 18.5142 8.61798C18.3404 8.43071 18.1153 8.2809 17.8388 8.16854C17.5703 8.05618 17.2424 8 16.8554 8H15.0899ZM16.2985 14.8539V12.2921H16.8317C17.0529 12.2921 17.2306 12.3184 17.3649 12.3708C17.4992 12.4157 17.6058 12.4906 17.6848 12.5955C17.7559 12.7004 17.8033 12.8277 17.827 12.9775C17.8507 13.1273 17.8625 13.3034 17.8625 13.5056C17.8625 13.7004 17.8546 13.8801 17.8388 14.0449C17.823 14.2097 17.7796 14.3521 17.7085 14.4719C17.6374 14.5918 17.5308 14.6854 17.3886 14.7528C17.2543 14.8202 17.0647 14.8539 16.8198 14.8539H16.2985ZM16.2985 11.2809V9.07865H16.7961C17.199 9.07865 17.4755 9.16854 17.6255 9.34831C17.7835 9.52809 17.8625 9.79775 17.8625 10.1573C17.8625 10.5243 17.7914 10.8052 17.6492 11C17.515 11.1873 17.2464 11.2809 16.8435 11.2809H16.2985Z" fill="white"/>
</svg>

<svg xmlns="http://www.w3.org/2000/svg" width="24" height="24" fill="none" viewBox="0 0 24 24"><path fill="#fff" fill-rule="evenodd" d="M4 5h16a1 1 0 0 1 1 1v12a1 1 0 0 1-1 1H4a1 1 0 0 1-1-1V6a1 1 0 0 1 1-1ZM2 6a2 2 0 0 1 2-2h16a2 2 0 0 1 2 2v12a2 2 0 0 1-2 2H4a2 2 0 0 1-2-2V6Zm3 10V8h1.765c.388 0 .715.056.984.169.276.112.502.262.675.449.174.187.296.404.368.652.079.24.118.49.118.753v.292c0 .217-.02.4-.06.55-.03.15-.082.281-.153.393-.134.21-.34.39-.616.54.284.127.493.314.628.562.134.247.201.584.201 1.01v.45c0 .704-.182 1.244-.545 1.618-.355.375-.928.562-1.718.562H5Zm1.209-3.708v2.562h.52c.246 0 .435-.034.57-.101a.715.715 0 0 0 .32-.281c.07-.12.114-.262.13-.427.016-.165.024-.345.024-.54 0-.202-.012-.378-.036-.528a.931.931 0 0 0-.142-.382.645.645 0 0 0-.32-.224 1.495 1.495 0 0 0-.533-.079h-.533Zm0-3.213v2.202h.545c.402 0 .671-.094.805-.281.143-.195.214-.476.214-.843 0-.36-.08-.629-.237-.809-.15-.18-.427-.27-.83-.27H6.21Zm5.045 0v2.494h.687c.213 0 .383-.026.51-.079a.722.722 0 0 0 .295-.247c.064-.105.107-.232.13-.382.024-.157.036-.337.036-.54a3.52 3.52 0 0 0-.035-.527 1.037 1.037 0 0 0-.142-.405c-.15-.21-.435-.314-.853-.314h-.628ZM10.045 16V8h1.943c1.422 0 2.133.783 2.133 2.348 0 .472-.08.873-.237 1.203-.15.33-.419.595-.806.797L14.382 16h-1.28l-1.126-3.416h-.723V16h-1.208Zm5.045-8v8h1.647c.79 0 1.363-.187 1.718-.562.363-.374.545-.914.545-1.618v-.45c0-.426-.067-.763-.201-1.01a1.284 1.284 0 0 0-.628-.562c.276-.15.481-.33.616-.54.07-.112.122-.243.154-.393.04-.15.059-.333.059-.55v-.292c0-.263-.04-.514-.119-.753a1.591 1.591 0 0 0-.367-.652 1.859 1.859 0 0 0-.675-.45C17.57 8.057 17.242 8 16.855 8H15.09Zm1.209 6.854v-2.562h.533c.22 0 .399.026.533.079.134.045.24.12.32.224a.931.931 0 0 1 .142.382 3.4 3.4 0 0 1 .035.529c0 .194-.007.374-.023.539-.016.165-.06.307-.13.427a.715.715 0 0 1-.32.28c-.135.068-.324.102-.57.102h-.52Zm0-3.573V9.079h.497c.403 0 .68.09.83.27.157.18.236.449.236.808 0 .367-.07.648-.213.843-.134.187-.403.28-.806.28H16.3Z" clip-rule="evenodd"/></svg>
